images/intestine.svg

<?xml version="1.0"?>
<svg xmlns="http://www.w3.org/2000/svg" height="512px" viewBox="0 0 496 496" width="512px"><g><path d="m485.894531 152.007812c6.53125-9.351562 10.105469-20.472656 10.105469-32.007812 0-30.878906-25.128906-56-56-56-11.496094 0-22.632812 3.542969-32 10.105469-9.367188-6.5625-20.503906-10.105469-32-10.105469-11.527344 0-22.65625 3.574219-32.007812 10.105469-9.082032-6.351563-20.097657-10.105469-31.992188-10.105469-11.496094 0-22.632812 3.550781-32 10.105469-9.367188-6.554688-20.503906-10.105469-32-10.105469-11.894531 0-22.910156 3.753906-31.992188 10.105469-9.351562-6.53125-20.472656-10.105469-32.007812-10.105469-11.496094 0-22.625 3.542969-32 10.097656v-46.625l-45.785156-27.472656h-18.214844v74.097656c-14.910156 10.414063-24 27.597656-24 45.902344 0 30.878906 25.128906 56 56 56 11.496094 0 22.632812-3.550781 32-10.105469 9.367188 6.554688 20.503906 10.105469 32 10.105469 11.710938 0 22.808594-3.6875 32-10.097656 9.351562 6.523437 20.472656 10.097656 32 10.097656 11.496094 0 22.632812-3.550781 32-10.105469 9.367188 6.554688 20.503906 10.105469 32 10.105469 11.527344 0 22.648438-3.574219 31.992188-10.097656 9.199218 6.410156 20.296874 10.097656 32.007812 10.097656 2.953125 0 5.871094-.28125 8.761719-.742188-.449219 2.878907-.761719 5.78125-.761719 8.742188s.28125 5.894531.742188 8.785156c-14.085938-2.113281-28.855469 1.214844-40.695313 9.359375-9.085937-6.367187-20.125-10.144531-32.046875-10.144531-11.496094 0-22.632812 3.550781-32 10.105469-9.367188-6.554688-20.503906-10.105469-32-10.105469-11.527344 0-22.65625 3.574219-32.007812 10.105469-9.082032-6.351563-20.097657-10.105469-31.992188-10.105469-11.710938 0-22.808594 3.6875-32 10.097656-9.351562-6.523437-20.472656-10.097656-32-10.097656-11.496094 0-22.632812 3.542969-32 10.105469-9.367188-6.5625-20.503906-10.105469-32-10.105469-30.871094 0-56 25.121094-56 56 0 11.894531 3.6875 22.96875 10.039062 32.089844-6.488281 9.335937-10.039062 20.421875-10.039062 31.910156 0 11.527344 3.574219 22.65625 10.105469 32.007812-6.34375 9.082032-10.105469 20.097657-10.105469 31.992188 0 30.871094 25.128906 56 56 56 11.726562 0 22.816406-3.695312 32-10.097656 9.34375 6.523437 20.464844 10.097656 32 10.097656 11.496094 0 22.632812-3.542969 32-10.105469 9.367188 6.5625 20.503906 10.105469 32 10.105469 11.726562 0 22.816406-3.695312 32.007812-10.097656 9.34375 6.523437 20.472657 10.097656 31.992188 10.097656 11.535156 0 22.664062-3.585938 32.023438-10.121094 9.214843 6.425782 20.328124 10.121094 31.976562 10.121094 11.496094 0 22.632812-3.542969 32-10.105469v46.632813l45.785156 27.472656h18.214844v-74.097656c14.910156-10.414063 24-27.589844 24-45.902344 0-30.871094-25.128906-56-56-56-11.496094 0-22.632812 3.542969-32 10.105469-9.367188-6.5625-20.503906-10.105469-32-10.105469-11.527344 0-22.65625 3.585938-32.007812 10.105469-9.082032-6.34375-20.097657-10.105469-31.992188-10.105469-11.527344 0-22.648438 3.574219-32 10.097656-9.34375-6.523437-20.472656-10.097656-32-10.097656-11.496094 0-22.632812 3.542969-32 10.105469-9.367188-6.5625-20.503906-10.105469-32-10.105469-2.984375 0-5.894531.304688-8.761719.753906.449219-2.875.761719-5.785156.761719-8.753906 0-2.976562-.304688-5.886719-.761719-8.769531 2.882813.457031 5.792969.769531 8.761719.769531 11.894531 0 22.910156-3.761719 31.992188-10.105469 9.34375 6.519531 20.472656 10.105469 32.007812 10.105469 11.527344 0 22.640625-3.574219 31.992188-10.097656 9.207031 6.417968 20.328124 10.097656 32.007812 10.097656 11.496094 0 22.632812-3.542969 32-10.105469 9.367188 6.5625 20.503906 10.105469 32 10.105469 11.527344 0 22.648438-3.574219 32-10.097656 9.191406 6.410156 20.289062 10.097656 32 10.097656 11.894531 0 22.910156-3.761719 31.992188-10.105469 9.351562 6.53125 20.472656 10.105469 32.007812 10.105469 30.871094 0 56-25.128906 56-56 0-11.496094-3.542969-22.640625-10.105469-32 6.5625-9.359375 10.105469-20.503906 10.105469-32 0-11.894531-3.753906-22.910156-10.105469-31.992188zm-16.140625 69.335938c6.605469 7.359375 10.246094 16.832031 10.246094 26.65625 0 22.054688-17.945312 40-40 40-7.105469 0-13.976562-1.9375-20.023438-5.449219 7.503907-9.527343 12.023438-21.511719 12.023438-34.550781h-16c0 22.054688-17.945312 40-40 40-16.921875 0-32.089844-10.710938-37.726562-26.65625l-15.082032 5.328125c2.066406 5.839844 5.082032 11.136719 8.769532 15.832031-14.503907 8.113282-33.929688 6.632813-46.617188-4.761718l-5.34375-4.789063-5.34375 4.800781c-7.367188 6.605469-16.832031 10.246094-26.65625 10.246094-16.726562 0-31.832031-10.542969-37.566406-26.238281l-15.035156 5.503906c2.050781 5.597656 4.96875 10.71875 8.546874 15.253906-12.175781 6.785157-27.753906 6.785157-39.921874-.023437 7.472656-9.519532 11.976562-21.480469 11.976562-34.496094h-16c0 22.054688-17.945312 40-40 40-5.183594 0-10.160156-1.03125-14.878906-2.953125-4.511719-8.222656-11.105469-15.304687-19.378906-20.503906l-8.511719 13.546875c11.753906 7.382812 18.769531 20.0625 18.769531 33.910156 0 5.191406-1.023438 10.199219-2.945312 14.9375-17.292969 9.535156-29.054688 27.949219-29.054688 49.0625h16c0-22.054688 17.945312-40 40-40 9.824219 0 19.289062 3.640625 26.65625 10.246094l5.34375 4.800781 5.34375-4.800781c12.703125-11.382813 32.128906-12.863282 46.632812-4.742188-7.65625 9.785156-11.976562 21.902344-11.976562 34.496094h16c0-11.351562 4.847656-22.207031 13.3125-29.800781 7.335938-6.574219 16.816406-10.199219 26.6875-10.199219 22.054688 0 40 17.945312 40 40h16c0-13.015625-4.503906-24.976562-11.976562-34.496094 14.511718-8.113281 33.9375-6.640625 46.632812 4.742188l5.34375 4.800781 5.34375-4.800781c7.367188-6.605469 16.832031-10.246094 26.65625-10.246094 22.054688 0 40 17.945312 40 40 0 14.199219-7.664062 27.464844-20.007812 34.601562l-3.992188 2.308594v65.761719l-32-19.199219v-46.550781l-3.992188-2.3125c-2.359374-1.371094-4.601562-3-6.664062-4.847656l-5.34375-4.808594-5.34375 4.800781c-7.367188 6.605469-16.832031 10.246094-26.65625 10.246094-16.527344 0-31.558594-10.375-37.414062-25.832031l-14.96875 5.671875c2.03125 5.367187 4.863281 10.289062 8.320312 14.664062-12.175781 6.785156-27.738281 6.785156-39.898438-.015625 3.746094-4.769531 6.800782-10.152343 8.863282-16.089843l-15.109375-5.246094c-5.59375 16.054687-20.777344 26.847656-37.792969 26.847656-9.824219 0-19.289062-3.640625-26.65625-10.246094l-5.34375-4.800781-5.34375 4.800781c-12.695312 11.390625-32.121094 12.871094-46.625 4.75 3.746094-4.761718 6.792969-10.136718 8.855469-16.070312l-15.109375-5.265625c-5.59375 16.046875-20.769532 26.832031-37.777344 26.832031-22.054688 0-40-17.945312-40-40s17.945312-40 40-40v-16c-13.039062 0-25.023438 4.519531-34.550781 12.023438-3.503907-6.046876-5.449219-12.917969-5.449219-20.023438 0-7.0625 1.929688-13.902344 5.398438-19.929688 7.226562 5.664063 15.914062 9.632813 25.5625 11.210938l2.558593-15.800781c-19.414062-3.160157-33.519531-19.761719-33.519531-39.480469 0-22.054688 17.945312-40 40-40 9.816406 0 19.28125 3.640625 26.664062 10.246094l5.335938 4.785156 5.335938-4.785156c12.71875-11.390625 32.128906-12.863282 46.625-4.75-3.6875 4.695312-6.703126 9.992187-8.769532 15.824218l15.082032 5.335938c5.636718-15.945312 20.804687-26.65625 37.726562-26.65625 22.054688 0 40 17.945312 40 40h16c0-13.015625-4.503906-24.976562-11.976562-34.488281 14.503906-8.121094 33.921874-6.65625 46.640624 4.746093l5.335938 4.773438 5.335938-4.785156c7.382812-6.605469 16.847656-10.246094 26.664062-10.246094 22.054688 0 40 17.945312 40 40h16c0-13.015625-4.503906-24.976562-11.976562-34.496094 10.601562-6.023437 23.746093-7.023437 35.054687-2.449218 2.035156 3.648437 4.425781 7.121093 7.265625 10.28125l11.902344-10.6875c-6.605469-7.351563-10.246094-16.824219-10.246094-26.648438 0-5.230469 1.046875-10.265625 2.984375-15.039062 3.671875-2.03125 7.167969-4.441407 10.351563-7.296876l-10.671876-11.910156c-7.382812 6.605469-16.847656 10.246094-26.664062 10.246094-16.921875 0-32.089844-10.710938-37.726562-26.65625l-15.082032 5.335938c2.066406 5.832031 5.074219 11.128906 8.761719 15.824218-14.511719 8.113282-33.90625 6.640625-46.625-4.75l-5.328125-4.785156-5.335938 4.785156c-12.710937 11.382813-32.105468 12.863282-46.625 4.75 3.6875-4.6875 6.695313-9.984375 8.761719-15.808594l-15.082031-5.34375c-5.640625 15.9375-20.808594 26.648438-37.71875 26.648438-9.816406 0-19.28125-3.640625-26.664062-10.246094l-5.335938-4.785156-5.335938 4.785156c-7.382812 6.605469-16.847656 10.246094-26.664062 10.246094-22.054688 0-40-17.945312-40-40 0-14.191406 7.664062-27.457031 20.007812-34.609375l3.992188-2.3125v-65.75l32 19.199219v46.550781l3.992188 2.3125c2.351562 1.363281 4.59375 2.992187 6.664062 4.855469l5.34375 4.785156 5.335938-4.785156c12.726562-11.390625 32.136718-12.863282 46.640624-4.742188-7.472656 9.519532-11.976562 21.480469-11.976562 34.496094h16c0-22.054688 17.945312-40 40-40 9.816406 0 19.28125 3.640625 26.664062 10.246094l5.335938 4.785156 5.335938-4.785156c7.382812-6.605469 16.847656-10.246094 26.664062-10.246094 22.054688 0 40 17.945312 40 40h16c0-13.015625-4.503906-24.976562-11.976562-34.488281 14.519531-8.121094 33.914062-6.648438 46.640624 4.746093l5.335938 4.773438 5.335938-4.785156c7.382812-6.605469 16.847656-10.246094 26.664062-10.246094 22.054688 0 40 17.945312 40 40 0 7.105469-1.9375 13.976562-5.449219 20.023438-9.527343-7.503907-21.511719-12.023438-34.550781-12.023438v16c22.054688 0 40 17.945312 40 40 0 9.824219-3.640625 19.296875-10.246094 26.65625l-4.800781 5.34375zm0 0" data-original="#000000" class="active-path" data-old_color="#2d8dc5" fill="#2d8dc5"/></g> </svg>

<svg xmlns="http://www.w3.org/2000/svg" height="512" viewBox="0 0 496 496" width="512"><path d="M485.895 152.008C492.426 142.656 496 131.535 496 120c0-30.88-25.13-56-56-56-11.496 0-22.633 3.543-32 10.105C398.633 67.543 387.496 64 376 64c-11.527 0-22.656 3.574-32.008 10.105C334.9 67.754 323.895 64 312 64c-11.496 0-22.633 3.55-32 10.105C270.633 67.55 259.496 64 248 64c-11.895 0-22.9 3.754-31.992 10.105C206.656 67.574 195.535 64 184 64c-11.496 0-22.625 3.543-32 10.098V27.473L106.215 0H88v74.098C73.1 84.512 64 101.695 64 120c0 30.88 25.13 56 56 56 11.496 0 22.633-3.55 32-10.105C161.367 172.45 172.504 176 184 176c11.71 0 22.81-3.687 32-10.098 9.352 6.523 20.473 10.098 32 10.098 11.496 0 22.633-3.55 32-10.105C289.367 172.45 300.504 176 312 176c11.527 0 22.648-3.574 31.992-10.098C353.19 172.313 364.29 176 376 176c2.953 0 5.87-.28 8.762-.742-.45 2.88-.762 5.78-.762 8.742s.28 5.895.742 8.785c-14.086-2.113-28.855 1.215-40.695 9.36C334.96 195.777 323.922 192 312 192c-11.496 0-22.633 3.55-32 10.105C270.633 195.55 259.496 192 248 192c-11.527 0-22.656 3.574-32.008 10.105C206.9 195.754 195.895 192 184 192c-11.71 0-22.81 3.688-32 10.098-9.352-6.523-20.473-10.098-32-10.098-11.496 0-22.633 3.543-32 10.105C78.633 195.543 67.496 192 56 192c-30.87 0-56 25.12-56 56 0 11.895 3.688 22.97 10.04 32.1C3.55 289.426 0 300.512 0 312c0 11.527 3.574 22.656 10.105 32.008C3.762 353.1 0 364.105 0 376c0 30.87 25.13 56 56 56 11.727 0 22.816-3.695 32-10.098C97.344 428.426 108.465 432 120 432c11.496 0 22.633-3.543 32-10.105 9.367 6.563 20.504 10.105 32 10.105 11.727 0 22.816-3.695 32.008-10.098C225.352 428.426 236.48 432 248 432c11.535 0 22.664-3.586 32.023-10.12C289.238 428.305 300.352 432 312 432c11.496 0 22.633-3.543 32-10.105v46.633L389.785 496H408v-74.098c14.9-10.414 24-27.6 24-45.902 0-30.87-25.13-56-56-56-11.496 0-22.633 3.543-32 10.105-9.367-6.562-20.504-10.105-32-10.105-11.527 0-22.656 3.586-32.008 10.105C270.9 323.762 259.895 320 248 320c-11.527 0-22.648 3.574-32 10.098-9.344-6.523-20.473-10.098-32-10.098-11.496 0-22.633 3.543-32 10.105-9.367-6.562-20.504-10.105-32-10.105-2.984 0-5.895.305-8.762.754.45-2.875.762-5.785.762-8.754 0-2.977-.305-5.887-.762-8.77 2.883.457 5.793.77 8.762.77 11.895 0 22.9-3.762 31.992-10.105C161.336 300.414 172.465 304 184 304c11.527 0 22.64-3.574 31.992-10.098C225.2 300.32 236.32 304 248 304c11.496 0 22.633-3.543 32-10.105 9.367 6.563 20.504 10.105 32 10.105 11.527 0 22.648-3.574 32-10.098 9.19 6.4 20.29 10.098 32 10.098 11.895 0 22.9-3.762 31.992-10.105C417.344 300.426 428.465 304 440 304c30.87 0 56-25.13 56-56 0-11.496-3.543-22.64-10.105-32 6.563-9.36 10.105-20.504 10.105-32 0-11.895-3.754-22.9-10.105-31.992zm-16.14 69.336C476.36 228.703 480 238.176 480 248c0 22.055-17.945 40-40 40-7.105 0-13.977-1.937-20.023-5.45C427.48 273.023 432 261.04 432 248h-16c0 22.055-17.945 40-40 40-16.922 0-32.1-10.71-37.727-26.656l-15.082 5.328c2.066 5.84 5.082 11.137 8.77 15.832-14.504 8.113-33.93 6.633-46.617-4.762l-5.344-4.79-5.344 4.8C267.29 284.36 257.824 288 248 288c-16.727 0-31.832-10.543-37.566-26.238l-15.035 5.504c2.05 5.598 4.97 10.72 8.547 15.254-12.176 6.785-27.754 6.785-39.922-.023C171.496 272.977 176 261.016 176 248h-16c0 22.055-17.945 40-40 40-5.184 0-10.16-1.03-14.88-2.953-4.512-8.223-11.105-15.305-19.38-20.504L77.23 278.1C88.984 285.473 96 298.152 96 312c0 5.19-1.023 10.2-2.945 14.938C75.762 336.473 64 354.887 64 376h16c0-22.055 17.945-40 40-40 9.824 0 19.29 3.64 26.656 10.246l5.344 4.8 5.344-4.8c12.703-11.383 32.13-12.863 46.633-4.742C196.32 351.29 192 363.406 192 376h16a40.08 40.08 0 0 1 13.313-29.801C228.648 339.625 238.13 336 248 336c22.055 0 40 17.945 40 40h16c0-13.016-4.504-24.977-11.977-34.496 14.512-8.113 33.938-6.64 46.633 4.742l5.344 4.8 5.344-4.8C356.71 339.64 366.176 336 376 336c22.055 0 40 17.945 40 40 0 14.2-7.664 27.465-20.008 34.602L392 412.9v65.762l-32-19.2v-46.55l-3.992-2.312c-2.36-1.37-4.602-3-6.664-4.848l-5.344-4.81-5.344 4.8C331.29 412.36 321.824 416 312 416c-16.527 0-31.56-10.375-37.414-25.832l-14.97 5.672c2.03 5.367 4.863 10.29 8.32 14.664-12.176 6.785-27.738 6.785-39.898-.016 3.746-4.77 6.8-10.152 8.863-16.1l-15.11-5.246C216.2 405.207 201.016 416 184 416c-9.824 0-19.29-3.64-26.656-10.246l-5.344-4.8-5.344 4.8c-12.695 11.39-32.12 12.87-46.625 4.75 3.746-4.762 6.793-10.137 8.855-16.07l-15.11-5.266A40.04 40.04 0 0 1 56 416c-22.055 0-40-17.945-40-40s17.945-40 40-40v-16c-13.04 0-25.023 4.52-34.55 12.023C17.945 325.977 16 319.105 16 312c0-7.062 1.93-13.902 5.398-19.93 7.227 5.664 15.914 9.633 25.563 11.21l2.56-15.8C30.105 284.32 16 267.72 16 248c0-22.055 17.945-40 40-40 9.816 0 19.28 3.64 26.664 10.246L88 223.03l5.336-4.785c12.72-11.39 32.13-12.863 46.625-4.75-3.687 4.695-6.703 9.992-8.77 15.824l15.082 5.336C151.9 218.71 167.078 208 184 208c22.055 0 40 17.945 40 40h16c0-13.016-4.504-24.977-11.977-34.488 14.504-8.12 33.922-6.656 46.64 4.746L280 223.03l5.336-4.785C292.72 211.64 302.184 208 312 208c22.055 0 40 17.945 40 40h16c0-13.016-4.504-24.977-11.977-34.496 10.602-6.023 23.746-7.023 35.055-2.45 2.035 3.648 4.426 7.12 7.266 10.28l11.902-10.687C403.64 203.297 400 193.824 400 184c0-5.23 1.047-10.266 2.984-15.04 3.672-2.03 7.168-4.44 10.352-7.297l-10.672-11.9C395.28 156.36 385.816 160 376 160c-16.922 0-32.1-10.71-37.727-26.656l-15.082 5.336c2.066 5.832 5.074 11.13 8.762 15.824-14.512 8.113-33.906 6.64-46.625-4.75L280 144.97l-5.336 4.785c-12.71 11.383-32.105 12.863-46.625 4.75 3.688-4.687 6.695-9.984 8.762-15.81l-15.082-5.344C216.078 149.29 200.9 160 184 160c-9.816 0-19.28-3.64-26.664-10.246L152 144.97l-5.336 4.785C139.28 156.36 129.816 160 120 160c-22.055 0-40-17.945-40-40 0-14.19 7.664-27.457 20.008-34.61L104 83.078v-65.75l32 19.2v46.55l3.992 2.313a39.88 39.88 0 0 1 6.664 4.855L152 95.03l5.336-4.785c12.727-11.39 32.137-12.863 46.64-4.742C196.504 95.023 192 106.984 192 120h16c0-22.055 17.945-40 40-40 9.816 0 19.28 3.64 26.664 10.246L280 95.03l5.336-4.785C292.72 83.64 302.184 80 312 80c22.055 0 40 17.945 40 40h16c0-13.016-4.504-24.977-11.977-34.488 14.52-8.12 33.914-6.648 46.64 4.746L408 95.03l5.336-4.785C420.72 83.64 430.184 80 440 80c22.055 0 40 17.945 40 40 0 7.105-1.937 13.977-5.45 20.023C465.023 132.52 453.04 128 440 128v16c22.055 0 40 17.945 40 40 0 9.824-3.64 19.297-10.246 26.656l-4.8 5.344zm0 0" fill="#2d8dc5"/></svg>
